src/assets/icons/notification-fill.svg

<svg width="20" height="22" viewBox="0 0 20 22" fill="none" xmlns="http://www.w3.org/2000/svg">
<path d="M19.6968 15.2361C19.6768 15.2201 17.5568 13.5961 17.5938 9.20607C17.6138 6.67307 16.7818 4.42407 15.2468 2.87207C13.8718 1.47907 12.0098 0.708073 10.0048 0.700073H9.99179C7.98779 0.708073 6.12579 1.48007 4.74979 2.87207C3.21579 4.42507 2.3828 6.67406 2.4038 9.20506C2.4408 13.5371 0.383791 15.1721 0.301791 15.2351C0.0417911 15.4291 -0.0642083 15.7651 0.0367917 16.0731C0.137792 16.3811 0.426789 16.5881 0.749789 16.5881H5.24379C5.34379 19.1321 7.43179 21.1751 9.99979 21.1751C12.5678 21.1751 14.6548 19.1321 14.7558 16.5881H19.2498C19.5738 16.5881 19.8598 16.3801 19.9618 16.0731C20.0638 15.7661 19.9568 15.4291 19.6968 15.2361ZM9.99979 19.1761C8.53379 19.1761 7.34279 18.0291 7.24379 16.5881H12.7558C12.6558 18.0281 11.4658 19.1751 9.99979 19.1751V19.1761Z" fill="black"/>
</svg>

<svg width="20" height="22" fill="none" xmlns="http://www.w3.org/2000/svg"><path d="M19.697 15.236c-.02-.016-2.14-1.64-2.103-6.03.02-2.533-.812-4.782-2.347-6.334C13.872 1.48 12.01.708 10.005.7h-.013c-2.004.008-3.866.78-5.242 2.172-1.534 1.553-2.367 3.802-2.346 6.333.037 4.332-2.02 5.967-2.102 6.03a.751.751 0 0 0 .448 1.353h4.494c.1 2.544 2.188 4.587 4.756 4.587s4.655-2.043 4.756-4.587h4.494a.75.75 0 0 0 .447-1.352zM10 19.176a2.771 2.771 0 0 1-2.756-2.588h5.512A2.772 2.772 0 0 1 10 19.175v.001z" fill="#000"/></svg>
